images/zero.svg

<svg width="44" height="57" fill="none" xmlns="http://www.w3.org/2000/svg"><path d="M.630938 28.5c0-8.7147 1.672002-15.58 5.016002-20.596C9.0416 2.888 14.4883.379995 21.9869.379995c7.4987 0 12.92 2.508005 16.264 7.524005 3.3947 5.016 5.092 11.8813 5.092 20.596 0 8.816-1.6973 15.732-5.092 20.748-3.344 5.016-8.7653 7.524-16.264 7.524-7.4986 0-12.9453-2.508-16.33996-7.524C2.30294 44.232.630938 37.316.630938 28.5zm29.943962 0c0-5.1173-.5573-9.044-1.672-11.78-1.1146-2.7867-3.42-4.18-6.916-4.18-3.496 0-5.8013 1.3933-6.916 4.18-1.1146 2.736-1.672 6.6627-1.672 11.78 0 3.4453.2027 6.308.608 8.588.4054 2.2293 1.216 4.0533 2.432 5.472 1.2667 1.368 3.116 2.052 5.548 2.052s4.256-.684 5.472-2.052c1.2667-1.4187 2.1027-3.2427 2.508-5.472.4054-2.28.608-5.1427.608-8.588z" fill="#02897A"/></svg>

<svg width="44" height="57" viewBox="0 0 44 57" fill="none" xmlns="http://www.w3.org/2000/svg">
<path d="M0.630938 28.5C0.630938 19.7853 2.30294 12.92 5.64694 7.904C9.0416 2.888 14.4883 0.379995 21.9869 0.379995C29.4856 0.379995 34.9069 2.888 38.2509 7.904C41.6456 12.92 43.3429 19.7853 43.3429 28.5C43.3429 37.316 41.6456 44.232 38.2509 49.248C34.9069 54.264 29.4856 56.772 21.9869 56.772C14.4883 56.772 9.0416 54.264 5.64694 49.248C2.30294 44.232 0.630938 37.316 0.630938 28.5ZM30.5749 28.5C30.5749 23.3827 30.0176 19.456 28.9029 16.72C27.7883 13.9333 25.4829 12.54 21.9869 12.54C18.4909 12.54 16.1856 13.9333 15.0709 16.72C13.9563 19.456 13.3989 23.3827 13.3989 28.5C13.3989 31.9453 13.6016 34.808 14.0069 37.088C14.4123 39.3173 15.2229 41.1413 16.4389 42.56C17.7056 43.928 19.5549 44.612 21.9869 44.612C24.4189 44.612 26.2429 43.928 27.4589 42.56C28.7256 41.1413 29.5616 39.3173 29.9669 37.088C30.3723 34.808 30.5749 31.9453 30.5749 28.5Z" fill="#02897A"/>
</svg>
